X:1
T:Prelude to a Tragedy
C:Lee Actor
Z:© 2004 Polygames.     All Rights Reserved.
%%score [ 1 | 2 | 3 | 4 | 5 | 6 | 7 ] [ { 8 | 9 } | 10 | { 11 | 12 } | 13 ] [ 14 | { 15 | ( 16 17 ) } ] 18 19 [ 20 | 21 | 22 | 23 | 24 ]
L:1/16
Q:1/4=85
M:3/4
I:linebreak $
K:C
V:1 treble transpose=12 nm="Piccolo" snm="Picc."
V:2 treble nm="Flutes:1 2" snm="Fl."
V:3 treble nm="Oboes:1 2" snm="Ob."
V:4 treble transpose=-7 nm="English Horn" snm="E. H."
V:5 treble transpose=-2 nm="Clarinets in Bb:1 2" snm="Cl."
V:6 treble transpose=-14 nm="Bass Clarinet in Bb" snm="B. Cl."
V:7 bass nm="Bassoons:1 2" snm="Bsn."
L:1/8
V:8 treble transpose=-7 nm="Horns in F:1 2" snm="Hn.1 2"
L:1/4
V:9 treble transpose=-7 nm="Horns in F:3 4" snm="Hn.3 4"
L:1/4
V:10 treble nm="Trumpets in C:1 2" snm="Tpt."
L:1/4
V:11 bass nm="Trombones:1 2" snm="Trb.1 2"
L:1/4
V:12 bass nm="Trombones:3" snm="Trb.3"
L:1/4
V:13 bass nm="Tuba" snm="Tba."
L:1/4
V:14 bass nm="Timpani" snm="Timp."
L:1/8
V:15 perc nm="Percussion:1" snm="Perc.1"
K:none
L:1/4
V:16 perc nm="Percussion:2" snm="Perc.2"
K:none
L:1/4
V:17 perc 
K:none
L:1/4
V:18 treble nm="Harp" snm="Hp."
L:1/8
V:19 bass nm="Harp" snm="Hp."
L:1/8
V:20 treble nm="Violin I" snm="Vln. I"
V:21 treble nm="Violin II" snm="Vln. II"
V:22 alto nm="Viola" snm="Vla."
V:23 bass nm="Violoncello" snm="Vc."
V:24 bass transpose=-12 nm="Contrabass" snm="Cb."
V:1
"^Moderato" z12 |[M:4/4] z16 | z16 |[M:3/4] z12 |[M:2/4] z8 |[M:4/4] z16 |[M:3/4]!p! b12- | %7
[M:2/4] b8- |$[M:4/4] b16- |[M:3/4] b12- | b12- |[M:2/4] b8- |[M:4/4] b16 |[M:3/4] z12 | z12 | %15
 z4 z4!f! (b!<(!c'd'_e')!<)! |!ff! f' z z2 z4 z4 |$[M:4/4] z16 |[M:3/4] z12 | z12 | z12 | z12 | %22
[M:2/4] z8 |[M:4/4] z16 |[M:3/4] z12 |$[M:4/4] z16 | z16 |[M:3/4] z12 | z12 | z12 | z12 | z12 | %32
 z12 |$[M:2/4] z8 |[M:3/4] z12 |[M:2/4] z8 |[M:3/4] z12 | %37
!f! (^d!<(!e^fg) (a_bc'^c') (d'^d'e'=f')!<)! |!ff! (^f'g'f'g') (f'g'f'g') (f'g'f'g') |[M:2/4] z8 | %40
[M:3/4]!ff! (^f'g'f'g') (f'g'f'g') z4 | %41
V:2
 z12 |[M:4/4] z16 | z16 |[M:3/4] z12 |[M:2/4] z8 |[M:4/4] z16 |[M:3/4]!p! [b^f']12- | %7
[M:2/4]!<(! [bf']8!<)! |$[M:4/4]!f!!>(! [^a^e']16 |[M:3/4] z12!>)! | z12 |[M:2/4] z8 |[M:4/4] z16 | %13
[M:3/4] z12 | z12 | z4 z4"^1."!f! (b!<(!c'd'_e')!<)! |!ff! f' z z2 z4 z4 |$[M:4/4] z16 | %18
[M:3/4] z12 | z12 | z12 | z12 |[M:2/4] z8 |[M:4/4] z16 |[M:3/4] z12 |$[M:4/4] z16 | %26
!p!!<(! [gc']16 |[M:3/4]!f!!>(! [^fb]12!<)! | z12!>)! | z12 | z12 | z12 | %32
"^1."!p! (^fga_b) (fgab) (c'_d'_e'=e') |$[M:2/4]"^1." (=f'_g'f'_e') (=d'c'=ba) | %34
[M:3/4]!mp! ([Aa][_B_b][cc'][_d_d']) ([Aa][Bb][cc'][^c^c']) ([^d^d'][ee'][^f^f'][gg']) | %35
[M:2/4] ([^g^g'][aa'][gg'][^f^f']) ([=f=f'][_e_e'][dd'][cc']) | %36
[M:3/4]!mf! ([cc'][^c^c'][^d^d'][ee']) ([^f^f'][gg'][aa'][_b_b']) ([aa'][gg'][ff'][ee']) | %37
"^a 2"!f! (^d!<(!e^fg) (a_bc'^c') (d'^d'e'=f')!<)! |!ff! (^f'g'f'g') (f'g'f'g') (f'g'f'g') | %39
[M:2/4] z8 |[M:3/4]!ff! (^f'g'f'g') (f'g'f'g') z4 | %41
V:3
 z12 |[M:4/4] z16 | z16 |[M:3/4] z12 |[M:2/4] z8 |[M:4/4] z16 |[M:3/4]!p! [bd']12- | %7
[M:2/4]!<(! [bd']8!<)! |$[M:4/4]!f!!>(! [^a^c']16 |[M:3/4] z12!>)! | z12 |[M:2/4] z8 |[M:4/4] z16 | %13
[M:3/4] z12 | z12 | z4 z4"^1."!f! (B!<(!cd!<)!_e) |!ff! f z z2 z4 z4 |$[M:4/4] z16 | %18
[M:3/4]"^A" z12 | z12 | z12 | z12 |[M:2/4] z8 |[M:4/4] z16 | %24
[M:3/4]"^1."!f! (_B!>(!_cBc) (BcB_A) (GAGF)!>)! |$[M:4/4]!p! E z z2 z4 z8 |!p!!<(! [eb]16 | %27
[M:3/4]!f!!>(! [^d^a]12!<)! | z12!>)! | z12 | z12 | z12 | z12 |$[M:2/4] z8 |[M:3/4] z12 | %35
[M:2/4] z8 |[M:3/4]"^1."!mf! (c^c^de) (^fga_b) (agfe) | %37
!f! ([^D^d]!<(![Ee][^F^f][Gg]) ([Aa][_B_b][cc'][^c^c']) ([=d=d'][^d^d'][ee'][=f=f'])!<)! | %38
!ff! ([^f^f'][gg'][ff'][gg']) ([ff'][gg'][ff'][gg']) ([ff'][gg'][ff'][gg']) |[M:2/4] z8 | %40
[M:3/4]!ff! ([^f^f'][gg'][ff'][gg']) ([ff'][gg'][ff'][gg']) z4 | %41
V:4
 z12 |[M:4/4] z16 | z16 |[M:3/4] z12 |[M:2/4] z8 |[M:4/4] z16 |[M:3/4] z12 |[M:2/4] z8 |$ %8
[M:4/4] z16 |[M:3/4] z12 |!p! _D12- |[M:2/4]!<(! D8!<)! |[M:4/4]!f!!>(! C16 |[M:3/4] z12!>)! | %14
 z12 | z12 | z12 |$[M:4/4] z16 |[M:3/4] z12 | z12 | z12 | z12 |[M:2/4] z8 |[M:4/4] z16 | %24
[M:3/4] z12 |$[M:4/4] z16 |!p!!<(! d16 |[M:3/4]!f!!>(! ^c12!<)! | z12!>)! | z12 | z12 | z12 | %32
 z12 |$[M:2/4] z8 |[M:3/4] z12 |[M:2/4] z8 |[M:3/4]!mf! (G^G^AB) (^cdef) (edcB) | %37
!f! (^A!<(!B^cd) (efg^g) (a^ab=c')!<)! |!ff! (^c'd'c'd') (c'd'c'd') (c'd'c'd') |[M:2/4] z8 | %40
[M:3/4]!ff! (^c'd'c'd') (c'd'c'd') z4 | %41
V:5
 z12 |[M:4/4] z16 | z16 |[M:3/4] z12 |[M:2/4] z8 |[M:4/4] z16 |[M:3/4]!p! [^c'e']12- | %7
[M:2/4]!<(! [c'e']8!<)! |$[M:4/4]!f!!>(! [=c'_e']16 |[M:3/4] z12!>)! |"^1."!p! _A,12- | %11
[M:2/4]!<(! A,8!<)! |[M:4/4]!f!!>(! G,16 |[M:3/4] z12!>)! | z12 | z12 | z12 |$[M:4/4] z16 | %18
[M:3/4] z12 | z4"^2."!mp! (^F,G,F,G,) z4 | (^F,G,F,G,) (F,G,F,G,) (F,G,A,_B,) | %21
 (^F,G,F,G,) (F,G,A,_B,) (F,G,A,B,) |[M:2/4] (^F,G,F,G,) (F,G,F,G,) | %23
[M:4/4]!mp! ([^F,^F]!<(![G,G][F,F][G,G]) ([F,F][G,G][A,A][_B,_B]) ([F,F][G,G][F,F][G,G]) ([F,F][G,G][A,A][B,B])!<)! | %24
[M:3/4]!f! ([Cc]!>(![_D_d][Cc][Dd]) ([Cc][Dd][Cc][_B,_B]) ([A,A][B,B][A,A][G,G])!>)! |$ %25
[M:4/4]!p! [^F,^F] z z2 z4 z8 |!p!!<(! [^cd]16 |[M:3/4]!f!!>(! [=c_d]12!>)! | z12 | z12 | z12 | %31
 z12 |"^1."!p! (^GABc) (GABc) (d_ef^f) |$[M:2/4]"^1." (=g_agf) (=ed^cB) | %34
[M:3/4]!mp! ([B,B][=C=c][Dd][_E_e]) ([B,B][Cc][Dd][Ee]) ([Ff][^F^f][^G^g][Aa]) | %35
[M:2/4] ([^A^a][Bb][Aa][^G^g]) ([=G=g][Ff][Ee][Dd]) | %36
[M:3/4]!mf! ([Dd][_E_e][Ff][^F^f]) ([^G^g][Aa][Bb][cc']) ([Bb][Aa][Gg][Ff]) | %37
!f! ([=F=f]!<(![^F^f][^G^g][Aa]) ([Bb][cc'][dd'][^d^d']) ([e=e'][^e^e'][f^f'][=g=g'])!<)! | %38
!ff! ([^g^g'][aa'][gg'][aa']) ([gg'][aa'][gg'][aa']) ([gg'][aa'][gg'][aa']) |[M:2/4] z8 | %40
[M:3/4]!ff! ([^g^g'][aa'][gg'][aa']) ([gg'][aa'][gg'][aa']) z4 | %41
V:6
 z12 |[M:4/4] z16 | z16 |[M:3/4] z12 |[M:2/4] z8 |[M:4/4] z16 |[M:3/4] z12 |[M:2/4] z8 |$ %8
[M:4/4] z16 |[M:3/4] z12 |!p! _A,12- |[M:2/4]!<(! A,8!<)! |[M:4/4]!f!!>(! G,16 |[M:3/4] z12!>)! | %14
 z12 | z12 | z12 |$[M:4/4] z16 |[M:3/4] z4"^solo"!mp! (^F,G,F,G,) z4 | z4 (^F,G,F,G,) z4 | %20
 (^F,G,F,G,) (F,G,F,G,) (F,G,A,_B,) | (^F,G,F,G,) (F,G,A,_B,) (F,G,A,B,) | %22
[M:2/4] (^F,G,F,G,) (F,G,F,G,) |[M:4/4]!<(! (^F,G,F,G,) (F,G,A,_B,) (F,G,F,G,) (F,G,A,B,)!<)! | %24
[M:3/4]!f! (C!>(!_DCD) (CDC_B,) (A,B,A,!>)!G,) |$[M:4/4]!p! ^F, z z2 z4 z8 |!p!!<(! ^f16 | %27
[M:3/4]!f!!>(! ^e12!<)! | z12!>)! | z12 | z12 | z12 | z12 |$[M:2/4] z8 |[M:3/4] z12 |[M:2/4] z8 | %36
[M:3/4]!mf! (D_EF^F) (^GABc) (BAGF) |!f! (=F!<(!^F^GA) (Bcd^d) (ef^f=g)!<)! | %38
!ff! (^gaga) (gaga) (gaga) |[M:2/4] z8 |[M:3/4]!ff! (^gaga) (gaga) z4 | %41
V:7
 z6 |[M:4/4] z8 | z8 |[M:3/4] z6 |[M:2/4] z4 |[M:4/4] z8 |[M:3/4] z6 |[M:2/4] z4 |$[M:4/4] z8 | %9
[M:3/4] z6 |!p! [B,,D,]6- |[M:2/4]!<(! [B,,D,]4 | x2!<)![M:4/4]!f!!>(! [^A,,^C,]8 |[M:3/4] z6!>)! | %14
 z6 | z2!f! ([B,,,B,,]/!<(![C,,C,]/[D,,D,]/[_E,,_E,]/) ([B,,,B,,]/[C,,C,]/[D,,D,]/[E,,E,]/)!<)! | %16
!ff! !>![F,,F,]6 |$[M:4/4]"^a 2"!>(! !>!=E,,8!>)! |[M:3/4] z6 | z6 | z6 | z6 |[M:2/4] z4 | %23
[M:4/4]"^a 2"!p!!<(! E,8 |[M:3/4]!f!!>(! E,,6!>)!!<)! |$[M:4/4] z8 |!p!!<(! [B,C]8 | %27
[M:3/4]!f!!>(! [^A,B,]6!<)! | z6!>)! | z6 | z6 | z6 | z6 |$[M:2/4] z4 |[M:3/4] z6 |[M:2/4] z4 | %36
[M:3/4]!mf! ([C,,C,]4 [B,,,B,,]2) |!f! ([_E,,_E,]4!<(! [D,,D,]2)!<)! |!ff! [^F,,^F,]6- | %39
[M:2/4] [F,,F,]4- |[M:3/4] [F,,F,]6 | %41
V:8
 z3 |[M:4/4] z4 | z4 |[M:3/4] z3 |[M:2/4] z2 |[M:4/4] z4 |[M:3/4] z3 |[M:2/4] z2 |$[M:4/4] z4 | %9
[M:3/4] z3 |!p! [^F,A,]3- |[M:2/4]!<(! [F,A,]2!<)! |[M:4/4]!f!!>(! [=F,_A,]4 |[M:3/4] z3!>)! | z3 | %15
 z3 | z3 |$[M:4/4] z4 |[M:3/4] z3 | z3 | z3 | z3 |[M:2/4] z2 |[M:4/4]!p!!<(! [dg]4!<)! | %24
[M:3/4]!f!!>(! [^c^f]3 |$[M:4/4] z4!>)! | z4 |[M:3/4] z3 | z3 | z3 | z3 | z3 | z3 |$[M:2/4] z2 | %34
[M:3/4] z3 |[M:2/4] z2 |[M:3/4]!mf! ([cg]2 [B^f]) |!f! ([_B_e]2!<(! [Ad])!<)! |!ff! [A^f]3- | %39
[M:2/4] [Af]2- |[M:3/4] [Af]3 | %41
V:9
 z3 |[M:4/4] z4 | z4 |[M:3/4] z3 |[M:2/4] z2 |[M:4/4] z4 |[M:3/4] z3 |[M:2/4] z2 |$[M:4/4] z4 | %9
[M:3/4] z3 | z3 |[M:2/4] z2 |[M:4/4] z4 |[M:3/4] z3 | z3 | z3 | z3 |$[M:4/4] z4 |[M:3/4] z3 | z3 | %20
 z3 | z3 |[M:2/4] z2 |[M:4/4]!p!!<(! [B^f]4 |[M:3/4]!f!!>(! [_B=f]3!<)! |$[M:4/4] z4!>)! | z4 | %27
[M:3/4] z3 | z3 | z3 | z3 | z3 | z3 |$[M:2/4] z2 |[M:3/4] z3 |[M:2/4] z2 | %36
[M:3/4]!mf! ([G_e]2 [^Fd]) |!f! ([^FB]2!<(! [=F_B])!<)! |!ff! [Dd]3- |[M:2/4] [Dd]2- | %40
[M:3/4] [Dd]3 | %41
V:10
 z3 |[M:4/4] z4 | z4 |[M:3/4] z3 |[M:2/4] z2 |[M:4/4] z4 |[M:3/4] z3 |[M:2/4] z2 |$[M:4/4] z4 | %9
[M:3/4] z3 | z3 |[M:2/4] z2 |[M:4/4] z4 |[M:3/4] z3 | z3 | z3 | z3 |$[M:4/4] z4 |[M:3/4] z3 | z3 | %20
 z3 | z3 |[M:2/4] z2 |[M:4/4] z4 |[M:3/4] z3 |$[M:4/4] z4 | z4 |[M:3/4] z3 | z3 | z3 | z3 | z3 | %32
 z3 |$[M:2/4] z2 |[M:3/4] z3 |[M:2/4] z2 |[M:3/4] z3 |!f! ([Be]2!<(! [_B_e])!<)! |!ff! [dg]3- | %39
[M:2/4] [dg]2- |[M:3/4] [dg]3 | %41
V:11
 z3 |[M:4/4] z4 | z4 |[M:3/4] z3 |[M:2/4] z2 |[M:4/4] z4 |[M:3/4] z3 |[M:2/4] z2 |$[M:4/4] z4 | %9
[M:3/4] z3 | z3 |[M:2/4] z2 |[M:4/4] z4 |[M:3/4] z3 | z3 | z3 | z3 |$[M:4/4] z4 |[M:3/4] z3 | z3 | %20
 z3 | z3 |[M:2/4] z2 |[M:4/4]!p!!<(! [B,C]4 |[M:3/4]!f!!>(! [^A,B,]3!>)! |$[M:4/4] z4 | z4 | %27
[M:3/4] z3 | z3 | z3 | z3 | z3 |!p! ([D,G,]3 |$[M:2/4] [^C,^F,]2) |[M:3/4]!mp! ([F,_B,]3 | %35
[M:2/4] [E,A,]2) |[M:3/4]!mf! ([_A,_D]2 [G,C]) |[K:tenor]!f! ([B,E]2!<(! [_B,_E])!<)! | %38
!ff! [DG]3- |[M:2/4] [DG]2- |[M:3/4] [DG]3 | %41
V:12
 z3 |[M:4/4] z4 | z4 |[M:3/4] z3 |[M:2/4] z2 |[M:4/4] z4 |[M:3/4] z3 |[M:2/4] z2 |$[M:4/4] z4 | %9
[M:3/4] z3 | z3 |[M:2/4] z2 |[M:4/4] z4 |[M:3/4] z3 | z3 | z3 | z3 |$[M:4/4] z4 |[M:3/4] z3 | z3 | %20
 z3 | z3 |[M:2/4] z2 |[M:4/4] z4 |[M:3/4] z3 |$[M:4/4] z4 | z4 |[M:3/4] z3 | z3 | z3 | z3 | z3 | %32
!p! (B,,3 |$[M:2/4] _B,,2) |[M:3/4]!mp! (D,3 |[M:2/4] ^C,2) |[M:3/4]!mf! (F,2 E,) | %37
!f! (_A,2!<(! G,)!<)! |!ff! ^F,3- |[M:2/4] F,2- |[M:3/4] F,3 | %41
V:13
 z3 |[M:4/4] z4 | z4 |[M:3/4] z3 |[M:2/4] z2 |[M:4/4] z4 |[M:3/4] z3 |[M:2/4] z2 |$[M:4/4] z4 | %9
[M:3/4] z3 | z3 |[M:2/4] z2 |[M:4/4] z4 |[M:3/4] z3 | z3 | z3 | z3 |$[M:4/4] z4 |[M:3/4] z3 | z3 | %20
 z3 | z3 |[M:2/4] z2 |[M:4/4] z4 |[M:3/4] z3 |$[M:4/4] z4 | z4 |[M:3/4] z3 | z3 | z3 | z3 | z3 | %32
!p! (^F,,3 |$[M:2/4] =F,,2) |[M:3/4]!mp! (A,,3 |[M:2/4] ^G,,2) |[M:3/4]!mf! (C,,2 B,,,) | %37
!f! (_E,,2!<(! D,,)!<)! |!ff! ^F,,3- |[M:2/4] F,,2- |[M:3/4] F,,3 | %41
V:14
 z6 |[M:4/4] z8 | z8 |[M:3/4] z6 |[M:2/4] z4 |[M:4/4] z8 |[M:3/4] z6 |[M:2/4] z4 |$[M:4/4] z8 | %9
[M:3/4] z6 | z6 |[M:2/4] z4 |[M:4/4] z8 |[M:3/4] z6 | z6 | z6 | z6 |$[M:4/4] z8 |[M:3/4] z6 | z6 | %20
 z2 z2!mp! _B,,/B,,/B,, | z2 _B,,/B,,/B,, B,,/B,,/B,, |[M:2/4] z4 | %23
[M:4/4] z2!mp! _B,,/B,,/B,, z2!mf! B,,/B,,/B,, | %24
[M:3/4]!f! _B,,/B,,/B,,!mf! B,,/B,,/B,,!mp! B,,/B,,/B,, |$[M:4/4] z8 |!p! !///!E,8 x88 | %27
[M:3/4]!f! !///!E,6 x66 | z6 | z6 | z6 | z6 | z6 |$[M:2/4] z4 |[M:3/4] z6 |[M:2/4] z4 |[M:3/4] z6 | %37
 z6 |!ff! ^F,,2 F,,2 F,,2 |[M:2/4] z4 |[M:3/4]!ff! ^F,,2 F,,2 z2 | %41
V:15
 z3 |[M:4/4] z4 | z4 |[M:3/4] z3 |[M:2/4] z2 |[M:4/4] z4 |[M:3/4] z3 |[M:2/4] z2 |$[M:4/4] z4 | %9
[M:3/4] z3 | z3 |[M:2/4] z2 |[M:4/4] z4 |[M:3/4] z3 | z3 | z3 | z3 |$[M:4/4] z4 |[M:3/4] z3 | z3 | %20
 z3 | z3 |[M:2/4] z2 |[M:4/4] z4 |[M:3/4] z3 |$[M:4/4] z4 | z4 |[M:3/4] z3 | z3 | z3 | z3 | z3 | %32
"^Susp. Cym."!p! !///!C3- |$[M:2/4]"^(Susp. Cym.)" !///!C2- |[M:3/4]!<(! !///!C3- | %35
[M:2/4] !///!C2- |[M:3/4] !///!C3- | !///!C3!<)! |!ff! C3 |[M:2/4] z2 |[M:3/4] z3 | %41
V:16
 z3 |[M:4/4] z4 | z4 |[M:3/4] z3 |[M:2/4] z2 |[M:4/4] z4 |[M:3/4] z3 |[M:2/4] z2 |$[M:4/4] z4 | %9
[M:3/4] z3 | z3 |[M:2/4] z2 |[M:4/4] z4 |[M:3/4] z3 | z3 | z3 | z3 |$[M:4/4] z4 |[M:3/4] z3 | z3 | %20
 z3 | z3 |[M:2/4] z2 |[M:4/4] z4 |[M:3/4] z3 |$[M:4/4] z4 | z4 |[M:3/4] z3 | z3 | z3 | z3 | z3 | %32
"^B.D."!p! !///!C3- |$[M:2/4]"^(B.D.)" !///!C2- |[M:3/4]!<(! !///!C3- | x!<)![M:2/4] !///!C2- | %36
[M:3/4] !///!C3- | !///!C3 |!ff! C C C |[M:2/4] z2 |[M:3/4]!ff! C C z | %41
V:17
 x3 |[M:4/4] x4 | x4 |[M:3/4] x3 |[M:2/4] x2 |[M:4/4] x4 |[M:3/4] x3 |[M:2/4] x2 |$[M:4/4] x4 | %9
[M:3/4] x3 | x3 |[M:2/4] x2 |[M:4/4] x4 |[M:3/4] x3 | x3 | x3 | x3 |$[M:4/4] x4 |[M:3/4] x3 | x3 | %20
 x3 | x3 |[M:2/4] x2 |[M:4/4] x4 |[M:3/4] x3 |$[M:4/4] x4 | x4 |[M:3/4] x3 | x3 | x3 | x3 | x3 | %32
 x/16- x/32- x0 x/16- x/32- x0 x/16- x/32- x0 x/16- x/32- x0 x/16- x/32- x0 x/16- x/32- x0 x/16- x/32- x0 x/16- x/32- x0 x/16- x/32- x0 x/16- x/32- x0 x/16- x/32- x0 x/16- x/32- x0 x/16- x/32- x0 x/16- x/32- x0 x/16- x/32- x0 x/16- x/32- x0 x/16- x/32- x0 x/16- x/32- x0 x/16- x/32- x0 x/16- x/32- x0 x/16- x/32- x0 x/16- x/32- x0 x/16- x/32- x0 x/16- x/32- x0 x/16- x/32- x0 x/16- x/32- x0 x/16- x/32- x0 x/16- x/32- x0 x/16- x/32- x0 x/16- x/32- x0 x/64 |$ %33
[M:2/4] x/16- x/32- x0 x/16- x/32- x0 x/16- x/32- x0 x/16- x/32- x0 x/16- x/32- x0 x/16- x/32- x0 x/16- x/32- x0 x/16- x/32- x0 x/16- x/32- x0 x/16- x/32- x0 x/16- x/32- x0 x/16- x/32- x0 x/16- x/32- x0 x/16- x/32- x0 x/16- x/32- x0 x/16- x/32- x0 x/16- x/32- x0 x/16- x/32- x0 x/16- x/32- x0 x/16- x/32- x0 x/64 | %34
[M:3/4] x/16- x/32- x0 x/16- x/32- x0 x/16- x/32- x0 x/16- x/32- x0 x/16- x/32- x0 x/16- x/32- x0 x/16- x/32- x0 x/16- x/32- x0 x/16- x/32- x0 x/16- x/32- x0 x/16- x/32- x0 x/16- x/32- x0 x/16- x/32- x0 x/16- x/32- x0 x/16- x/32- x0 x/16- x/32- x0 x/16- x/32- x0 x/16- x/32- x0 x/16- x/32- x0 x/16- x/32- x0 x/16- x/32- x0 x/16- x/32- x0 x/16- x/32- x0 x/16- x/32- x0 x/16- x/32- x0 x/16- x/32- x0 x/16- x/32- x0 x/16- x/32- x0 x/16- x/32- x0 x/16- x/32- x0 x/64 | %35
[M:2/4] x/16- x/32- x0 x/16- x/32- x0 x/16- x/32- x0 x/16- x/32- x0 x/16- x/32- x0 x/16- x/32- x0 x/16- x/32- x0 x/16- x/32- x0 x/16- x/32- x0 x/16- x/32- x0 x/16- x/32- x0 x/16- x/32- x0 x/16- x/32- x0 x/16- x/32- x0 x/16- x/32- x0 x/16- x/32- x0 x/16- x/32- x0 x/16- x/32- x0 x/16- x/32- x0 x/16- x/32- x0 x/64 | %36
[M:3/4] x/16- x/32- x0 x/16- x/32- x0 x/16- x/32- x0 x/16- x/32- x0 x/16- x/32- x0 x/16- x/32- x0 x/16- x/32- x0 x/16- x/32- x0 x/16- x/32- x0 x/16- x/32- x0 x/16- x/32- x0 x/16- x/32- x0 x/16- x/32- x0 x/16- x/32- x0 x/16- x/32- x0 x/16- x/32- x0 x/16- x/32- x0 x/16- x/32- x0 x/16- x/32- x0 x/16- x/32- x0 x/16- x/32- x0 x/16- x/32- x0 x/16- x/32- x0 x/16- x/32- x0 x/16- x/32- x0 x/16- x/32- x0 x/16- x/32- x0 x/16- x/32- x0 x/16- x/32- x0 x/16- x/32- x0 x/64 | %37
 x/16- x/32- x0 x/16- x/32- x0 x/16- x/32- x0 x/16- x/32- x0 x/16- x/32- x0 x/16- x/32- x0 x/16- x/32- x0 x/16- x/32- x0 x/16- x/32- x0 x/16- x/32- x0 x/16- x/32- x0 x/16- x/32- x0 x/16- x/32- x0 x/16- x/32- x0 x/16- x/32- x0 x/16- x/32- x0 x/16- x/32- x0 x/16- x/32- x0 x/16- x/32- x0 x/16- x/32- x0 x/16- x/32- x0 x/16- x/32- x0 x/16- x/32- x0 x/16- x/32- x0 x/16- x/32- x0 x/16- x/32- x0 x/16- x/32- x0 x/16- x/32- x0 x/16- x/32- x0 x/16- x/32- x0 x/64 | %38
 x3 |[M:2/4] x2 |[M:3/4] x3 | %41
V:18
!mf! [bb']2 z2 z2 |[M:4/4] z8 | z8 |[M:3/4] z6 |[M:2/4] z4 |[M:4/4] z8 |[M:3/4] z6 |[M:2/4] z4 |$ %8
[M:4/4] z8 |[M:3/4] z6 | z6 |[M:2/4] z4 |[M:4/4] z8 |[M:3/4] z6 | z6 | z6 | z6 |$[M:4/4] z8 | %18
[M:3/4] z6 | z6 | z6 | z6 |[M:2/4] z4 |[M:4/4] z8 |[M:3/4] z6 |$ %25
[M:4/4]!mf! [ee']2 [ee']2 [ee']2 [ee']2 |!<(! [ee']2 [ee']2 [ee']2 [ee']2 | x64!<)! %27
[M:3/4]!ff! [ee']2!>(! [ee']2 [ee']2!>)! |!mf! e/^c/A/E/ z2 e/c/A/E/ | z2 z2 e/^c/A/E/ | %30
 z2 z2 e/^c/A/E/ | z2 e/^c/A/E/ e/c/A/E/ | z6 |$[M:2/4] z4 |[M:3/4] z6 |[M:2/4] z4 |[M:3/4] z6 | %37
 z6 | z6 |[M:2/4] z4 |[M:3/4] z6 | %41
V:19
 z6 |[M:4/4] z8 | z8 |[M:3/4] z6 |[M:2/4] z4 |[M:4/4] z8 |[M:3/4] z6 |[M:2/4] z4 |$[M:4/4] z8 | %9
[M:3/4] z6 | z6 |[M:2/4] z4 |[M:4/4] z8 |[M:3/4] z6 | z6 | z6 | z6 |$[M:4/4] z8 |[M:3/4] z6 | z6 | %20
 z6 | z6 |[M:2/4] z4 |[M:4/4] z8 |[M:3/4] z6 |$[M:4/4][K:treble] z/ ^c/A/E/ F2 z/ c/A/E/ F2 | %26
 z/ ^c/A/E/ F2 z/ c/A/E/ F2 |[M:3/4] z/ ^c/A/E/ F2 z/ c/A/E/ | [F,F]2 [F,F]2 [F,F]2 | %29
 z2 z2 [F,F]2 | [F,F]2 z2 [F,F]2 | z2 [F,F]2 [F,F]2 | z6 |$[M:2/4] z4 |[M:3/4] z6 |[M:2/4] z4 | %36
[M:3/4] z6 | z6 | z6 |[M:2/4] z4 |[M:3/4] z6 | %41
V:20
"^Moderato"!p! [eb]12- |[M:4/4] [eb]16- | [eb]16- |[M:3/4] [eb]12- |[M:2/4] [eb]8- | %5
[M:4/4] [eb]16- |[M:3/4] [eb]12- |[M:2/4] [eb]8- |$[M:4/4] [eb]16- |[M:3/4] [eb]12- | [eb]12- | %11
[M:2/4] [eb]8- |[M:4/4] [eb]16 |[M:3/4] z12 | z4!mp! (ubc'd'_e')!mf! (bc'd'e') | %15
!f! (b!<(!c'd'_e') (bc'd'e') (bc'd'e')!<)! |!ff! f' z z2 z4 z4 |$[M:4/4] z16 |[M:3/4]"^A" z12 | %19
 z12 | z12 | z12 |[M:2/4]"^pizz."!mf! e4 e4 |[M:4/4] e4 _B4!f! e4 B4 | %24
[M:3/4]!ff! _B4!f! B4!mf! B4 |$[M:4/4] z16 |"^arco"!p! (ve!<(!fef efg_a) (efef efga)!<)! | %27
[M:3/4]!f! (_b!>(!_c'bc') (bc'b_a) (gag!>)!f) |!p! e z z2 z4 z4 |!p! (ve^cAE) (uecAE) z4 | %30
 z4 (ve^cAE) z4 | (ve^cAE) z4 (uecAE) |!p! (v^FGA_B) (FGAB) (c_d_e=e) |$ %33
[M:2/4] (=f_gf_e) (=dc=BA) |[M:3/4]!mp! (uA_Bc_d) (ABc^c) (^de^fg) |[M:2/4] (^gag^f) (=f_edc) | %36
[M:3/4]!mf! (vc^c^de) (^fga_b) (agfe) |!f! (u^d!<(!e^fg) (a_bc'^c') (d'^d'e'=f')!<)! | %38
!ff! (^f'g'f'g') (f'g'f'g') (f'g'f'g') |[M:2/4] z8 |[M:3/4]!ff! (^f'g'f'g') (f'g'f'g') z4 | %41
V:21
"^pizz."!mf! b4 z4 z4 |[M:4/4] z16 | z16 |[M:3/4] z12 |[M:2/4] z8 |[M:4/4] z16 | %6
[M:3/4]"^arco"!p! (vBcBc Bcd_e BcBc) |[M:2/4]!<(! (BcBc Bcd_e) | x83/21!<)!$ %8
[M:4/4]!f! (f!>(!_gfg fgfg) (fgf_e dedc)!>)! |[M:3/4]!pp! B z z2 z4 z4 |!p! (vBcd_e Bcde BcBc) | %11
[M:2/4]!<(! (BcBc Bcd_e) | x8!<)![M:4/4]!f! (f!>(!_gfg fgf!>)!g) (fgf_e dedc) | %13
[M:3/4]!pp! B z z2 z4!p! (uBcBc) | (Bcd_e)!mp! (Bcde)!mf! (Bcde) | %15
!f! (B!<(!cd_e) (Bcde) (Bcde)!<)! |!ff! f z z2 z4 z4 |$[M:4/4] z16 |[M:3/4] z12 | z12 | %20
 z4 z4"^pizz."!mf! _B,4 | z4 _B,4 B,4 |[M:2/4] z8 |[M:4/4] z4!mf! _B,4 z4!f! B,4 | %24
[M:3/4]!ff! _B,4!f! B,4!mf! B,4 |$[M:4/4] z8"^arco"!p! (uEFEF EFG_A) | %26
!<(! (EFEF EFG_A) (EFEF EFGA)!<)! |[M:3/4]!f! (_B!>(!_cBc) (BcB_A)!>)! (GAGF) |!p! E z z2 z4 z4 | %29
 z12 | z12 | z12 |!p! (v^FGA_B) (FGAB) (c_d_e=e) |$[M:2/4] (=f_gf_e) (=dc=BA) | %34
[M:3/4]!mp! (uA_Bc_d) (ABc^c) (^de^fg) |[M:2/4] (^gag^f) (=f_edc) | %36
[M:3/4]!mf! (vc^c^de) (^fga_b) (agfe) |!f! (u^d!<(!e^fg) (a_bc'^c') (d'^d'e'=f')!<)! | %38
!ff! (^f'g'f'g') (f'g'f'g') (f'g'f'g') |[M:2/4] z8 |[M:3/4]!ff! (^f'g'f'g') (f'g'f'g') z4 | %41
V:22
!p! (uB,CB,C B,CB,C B,CB,C) |[M:4/4] (B,CB,C B,CD_E) (B,CB,C B,CDE) | (F_GFG FGFG) (FGF_E DEDC) | %3
[M:3/4] (vB,CB,C B,CB,C B,CB,C) |[M:2/4] (B,CB,C B,CD_E) |[M:4/4] (F_GFG FGFG) (FGF_E DEDC) | %6
[M:3/4] (vB,CB,C B,CD_E B,CB,C) |[M:2/4]!<(! (B,CB,C B,CD_E)!<)! |$ %8
[M:4/4]!f! (F!>(!_GFG FGFG) (FGF_E DEDC)!>)! |[M:3/4]!p! (B,CB,C B,CD_E) (B,CB,C) | %10
 (vB,CD_E B,CDE B,CB,C) |[M:2/4]!<(! (B,CB,C B,CD_E) | x8!<)! %12
[M:4/4]!f! (F!>(!_GFG FGFG) (FGF_E DED!>)!C) |[M:3/4]!pp! (B,CD_E B,CB,C)!p! (uB,CB,C) | %14
 (B,CD_E)!mp! (B,CDE)!mf! (B,CDE) |!f! (B,!<(!CD_E) (B,CDE) (B,CD!<)!E) |!ff! F z z2 z4 z4 |$ %17
[M:4/4] z16 |[M:3/4] z4"^pizz."!mf! E,4 z4 | z4 E,4 z4 | E,4 E,4 z4 | E,4 z4 z4 | %22
[M:2/4]!mf! E,4 E,4 |[M:4/4] E,4 z4!f! E,4 z4 |[M:3/4] z12 |$ %25
[M:4/4]"^arco"!p! (vE,F,E,F, E,F,G,_A,) (E,F,E,F, E,F,G,A,) | %26
!<(! (E,F,E,F, E,F,G,_A,) (E,F,E,F, E,F,G,A,)!<)! | %27
[M:3/4]!f! (_B,!>(!_CB,C) (B,CB,_A,) (G,A,G,!>)!F,) |!p! E, z z2 z4 z4 |"^pizz."!mp! F,4 F,4 z4 | %30
 z4 F,4 z4 | F,4 z4 F,4 | ^F,4 z4 z4 |$[M:2/4] z8 | %34
[M:3/4]"^arco"!mp! (uA,_B,C_D) (A,B,C^C) (^DE^FG) |[M:2/4] (^GAG^F) (=F_EDC) | %36
[M:3/4]!mf! (vC^C^DE) (^FGA_B) (AGFE) |!f! (u^D!<(!E^FG) (A_Bc^c) (d^de=f)!<)! | %38
!ff! (^fgfg) (fgfg) (fgfg) |[M:2/4] z8 |[M:3/4]!ff! (^fgfg) (fgfg) z4 | %41
V:23
 z12 |[M:4/4] z16 | z16 |[M:3/4] z4!mp! F,,8- |[M:2/4] F,,8 |[M:4/4] z4 E,,12 |[M:3/4] z4 F,,8- | %7
[M:2/4] F,,8 |$[M:4/4] z4 E,,12 |[M:3/4] z12 | z4"^pizz."!f! !>!F,,4 z4 |[M:2/4] z8 | %12
[M:4/4] z4 !>!E,,4 z8 |[M:3/4] z12 | z4 z4"^arco"!mf! (vB,,C,D,_E,) | %15
!f! (B,,!<(!C,D,_E,) (B,,C,D,E,) (B,,C,D,E,)!<)! |!ff! !>!vF,12 |$[M:4/4]!>(! !>!vE,,16-!>)! | %18
[M:3/4]!p! E,,12- | E,,12- | E,,12- | E,,12- |[M:2/4] E,,8 |[M:4/4]!p!!<(! uE,,16 | %24
[M:3/4]!f!!>(! vE,,12-!>)!!<)! |$[M:4/4]!p! E,,16 |!p!!<(! uE,,16!<)! |[M:3/4]!f!!>(! vE,,12!>)! | %28
 z12 |"^pizz."!mp! F,,4 F,,4 z4 | z4 F,,4 z4 | F,,4 z4 F,,4 | ^F,,4 z4 z4 |$[M:2/4] z8 | %34
[M:3/4] z12 |[M:2/4] z8 |[M:3/4]"^arco"!mf! (vC,^C,^D,E,) (^F,G,A,_B,) (A,G,F,E,) | %37
!f! (u^D,!<(!E,^F,G,) (A,_B,C^C) (D^DE=F)!<)! |!ff! (^FGFG) (FGFG) (FGFG) |[M:2/4] z8 | %40
[M:3/4]!ff! (^FGFG) (FGFG) z4 | %41
V:24
 z12 |[M:4/4] z16 | z16 |[M:3/4] z4!mp! F,,8- |[M:2/4] F,,8 |[M:4/4] z4 E,,12 |[M:3/4] z4 F,,8- | %7
[M:2/4] F,,8 |$[M:4/4] z4 E,,12 |[M:3/4] z12 | z4"^pizz."!f! !>!F,,4 z4 |[M:2/4] z8 | %12
[M:4/4] z4 !>!E,,4 z8 |[M:3/4] z12 | z12 | %15
"^arco"!f! (uB,,!<(!C,D,_E,) (B,,C,D,E,) (B,,C,D,E,)!<)! |!ff! !>!vF,12 |$ %17
[M:4/4]!>(! !>!vE,,16-!>)! |[M:3/4]!p! E,,12- | E,,12- | E,,12- | E,,12- |[M:2/4] E,,8 | %23
[M:4/4]!p!!<(! uE,,16 |[M:3/4]!f!!>(! vE,,12-!>)! |$[M:4/4]!p! E,,16 |!p!!<(! uE,,16 | %27
[M:3/4]!f!!>(! vE,,12!>)! | z12 |"^pizz."!mp! F,,4 F,,4 z4 | z4 F,,4 z4 | F,,4 z4 F,,4 | %32
 ^F,,4 z4 z4 |$[M:2/4] z8 |[M:3/4] z12 |[M:2/4] z8 |[M:3/4] z12 | %37
"^arco"!f! (u^D,!<(!E,^F,G,) (A,_B,C^C) (D^DE=F)!<)! |!ff! (^FGFG) (FGFG) (FGFG) |[M:2/4] z8 | %40
[M:3/4]!ff! (^FGFG) (FGFG) z4 | %41
